app/dist/common/images/shanxi-securities.svg

<svg height="18" viewBox="0 0 18 18" width="18" xmlns="http://www.w3.org/2000/svg"><path d="m0 0h18v18h-18z" fill="#f0f3fa"/><g fill="#a9384a"><path d="m3 8.65a6.01 6.01 0 0 1 5.65-5.65v1.01a5 5 0 0 0 -4.65 4.64zm0 .7a6.01 6.01 0 0 0 5.65 5.65v-1.01a5 5 0 0 1 -4.65-4.64zm10.99 0a5 5 0 0 1 -4.64 4.65v1a6.01 6.01 0 0 0 5.65-5.65zm1.01-.7a6.01 6.01 0 0 0 -5.65-5.65v1.01a5 5 0 0 1 4.65 4.64z"/><path d="m5 5h1v6h-1zm7 2h1v6h-1zm-7 6v-1h6v1zm2-7v-1h6v1z"/><path d="m11 7h-4v4h4zm-1 1h-2v2h2z" fill-rule="evenodd"/></g></svg>

<!-- by TradingView --><svg width="18" height="18" viewBox="0 0 18 18" xmlns="http://www.w3.org/2000/svg"><path fill="#F0F3FA" d="M0 0h18v18H0z"/><path d="M3 8.65A6.01 6.01 0 0 1 8.65 3v1.01A5 5 0 0 0 4 8.65H3Zm0 .7A6.01 6.01 0 0 0 8.65 15v-1.01A5 5 0 0 1 4 9.35H3Zm10.99 0A5 5 0 0 1 9.35 14V15A6.01 6.01 0 0 0 15 9.35h-1.01Zm1.01-.7A6.01 6.01 0 0 0 9.35 3v1.01A5 5 0 0 1 14 8.65H15Z" fill="#A9384A"/><path fill="#A9384A" d="M5 5h1v6H5zM12 7h1v6h-1zM5 13v-1h6v1zM7 6V5h6v1z"/><path fill-rule="evenodd" d="M11 7H7v4h4V7Zm-1 1H8v2h2V8Z" fill="#A9384A"/></svg>
